svgs/sharp-solid/folder-minus.svg

<svg xmlns="http://www.w3.org/2000/svg" viewBox="0 0 512 512"><!--! Font Awesome Pro 6.6.0 by @fontawesome - https://fontawesome.com License - https://fontawesome.com/license (Commercial License) Copyright 2024 Fonticons, Inc. --><path d="M512 480L0 480 0 32l224 0 48 64 240 0 0 384zM184 272l-24 0 0 48 24 0 144 0 24 0 0-48-24 0-144 0z"/></svg>

<svg xmlns="http://www.w3.org/2000/svg" viewBox="0 0 512 512"><!--! Font Awesome Pro 6.4.2 by @fontawesome - https://fontawesome.com License - https://fontawesome.com/license (Commercial License) Copyright 2023 Fonticons, Inc. --><path d="M512 480H0V32H224l48 64H512V480zM184 272H160v48h24H328h24V272H328 184z"/></svg>
